resources/svg/audio-cable.svg

<svg xmlns="http://www.w3.org/2000/svg" viewBox="0 0 15 15" fill="currentColor"><path d="M7.85355 0.146447C7.65829 -0.0488155 7.34171 -0.0488155 7.14645 0.146447L6.14645 1.14645C6.05268 1.24021 6 1.36739 6 1.5V3H9V1.5C9 1.36739 8.94732 1.24021 8.85355 1.14645L7.85355 0.146447Z" fill="black"/><path d="M9 4V8H6V4H9Z" fill="black"/><path d="M10 9V12.5C10 13.3284 9.32843 14 8.5 14H8V15H7V14H6.5C5.67157 14 5 13.3284 5 12.5V9H10Z" fill="black"/></svg>

<svg xmlns="http://www.w3.org/2000/svg" viewBox="0 0 15 15" fill="currentColor"><path d="M7.854.146a.5.5 0 00-.708 0l-1 1A.5.5 0 006 1.5V3h3V1.5a.5.5 0 00-.146-.354l-1-1zM9 4v4H6V4h3zm1 5v3.5A1.5 1.5 0 018.5 14H8v1H7v-1h-.5A1.5 1.5 0 015 12.5V9h5z" fill="currentColor"/></svg>
